X: 33521
T: Rainmaker
R: reel
M: 4/4
K: Edorian
BEBE FDDB|AFAd BGBd|AFGE D2eg|fBBA Bcde|
BEBE FDDB|AFAd BGBd|AFGE D2eg|fBBA~B3A:|
Adfd ecAd|f2ad fa~a2|g2 bg fadf|gefd ~e3f|
gefd ecAF|GFEF GABc|dAFA GEB,E|FDEF D3A:|

